Obsidian-SemiLight/actions/24s/view-media-visualization.svg

<svg viewBox="0 0 24 24" xmlns="http://www.w3.org/2000/svg"><path d="m7 5v2h-1v3h-1v2h-1v1h1v2h1v3h1v2h1v-3h1v-3h1v-1h2v1h1v1h1v1h1v2h1v-1h1v-2h1v-1h1v-1h1v-1h-1v-1h-1v-1h-1v-2h-1v-1h-1v2h-1v1h-1v1h-1v1h-2v-1h-1v-3h-1v-3z" fill="#4d4d4d"/></svg>

<svg xmlns="http://www.w3.org/2000/svg" viewBox="0 0 24 24">
  <defs id="defs3051">
    <style type="text/css" id="current-color-scheme">
      .ColorScheme-Text {
        color:#4d4d4d;
      }
      </style>
  </defs>
 <path style="fill:currentColor;fill-opacity:1;stroke:none" 
     d="M 7 5 L 7 7 L 6 7 L 6 10 L 5 10 L 5 12 L 4 12 L 4 13 L 5 13 L 5 15 L 6 15 L 6 18 L 7 18 L 7 20 L 8 20 L 8 17 L 9 17 L 9 14 L 10 14 L 10 13 L 12 13 L 12 14 L 13 14 L 13 15 L 14 15 L 14 16 L 15 16 L 15 18 L 16 18 L 16 17 L 17 17 L 17 15 L 18 15 L 18 14 L 19 14 L 19 13 L 20 13 L 20 12 L 19 12 L 19 11 L 18 11 L 18 10 L 17 10 L 17 8 L 16 8 L 16 7 L 15 7 L 15 9 L 14 9 L 14 10 L 13 10 L 13 11 L 12 11 L 12 12 L 10 12 L 10 11 L 9 11 L 9 8 L 8 8 L 8 5 L 7 5 z "
     class="ColorScheme-Text"
     />
</svg>
